src/components/Logo/svg/wellcome-logo-large.svg

<?xml version="1.0" encoding="UTF-8"?>
<svg width="80px" height="80px" viewBox="0 0 80 80" version="1.1" xmlns="http://www.w3.org/2000/svg" xmlns:xlink="http://www.w3.org/1999/xlink">
    <!-- Generator: Sketch 54.1 (76490) - https://sketchapp.com -->
    <g stroke="none" strokeWidth="1" fill="none" fillRule="evenodd">
        <path d="M27.6795604,67.1059341 C27.4597802,67.44 26.9925275,67.5986813 26.5771429,67.5986813 C25.7485714,67.5986813 25.2962637,67.0250549 25.229011,66.2017582 L29.9586813,66.2017582 L29.9586813,67.1059341 L27.6795604,67.1059341 Z M26.5512088,63.6487912 C27.2923077,63.6487912 27.7723077,64.181978 27.7723077,64.8738462 L25.2413187,64.8738462 C25.3701099,64.072967 25.8232967,63.6487912 26.5512088,63.6487912 Z M29.9586813,64.381978 C29.4984615,62.8474725 28.367033,62.0004396 26.4347253,62.0004396 C24.9432967,62.0004396 23.8065934,62.7573626 23.2307692,63.8734066 L23.7586813,62.1736264 L21.1098901,62.1736264 L20.163956,66.4672527 L20.1116484,66.4672527 L19.2017582,62.1736264 L16.8149451,62.1736264 L15.9564835,66.4672527 L15.9178022,66.4672527 L14.9054945,62.1736264 L12.258022,62.1736264 L14.3595604,69.0751648 L16.9696703,69.0751648 L17.9815385,64.8061538 L18.0193407,64.8061538 L19.0057143,69.0751648 L21.6158242,69.0751648 L22.8545055,65.0865934 C22.8294505,65.2685714 22.8123077,65.4549451 22.8123077,65.6448352 C22.8123077,67.9437363 24.3991209,69.2479121 26.5512088,69.2479121 C28.032967,69.2479121 29.3705495,68.6342857 29.9586813,67.3156044 L29.9586813,69.0751648 L32.4887912,69.0751648 L32.4887912,59.5802198 L29.9586813,59.5802198 L29.9586813,64.381978 Z M64.5446154,63.6487912 C65.2843956,63.6487912 65.7617582,64.181978 65.7617582,64.8738462 L63.2334066,64.8738462 C63.363956,64.072967 63.8189011,63.6487912 64.5446154,63.6487912 Z M64.570989,67.5986813 C63.7384615,67.5986813 63.2874725,67.0250549 63.2224176,66.2017582 L68.1925275,66.2017582 C68.1802198,63.5292308 67.0237363,62.0004396 64.4276923,62.0004396 C62.6224176,62.0004396 61.338022,63.1094505 60.9397802,64.6232967 L60.9397802,64.3287912 C60.9397802,63.2101099 60.3569231,62.0004396 58.6404396,62.0004396 C57.643956,62.0004396 57.0307692,62.3582418 56.6804396,62.7032967 C56.6443956,62.7446154 56.603956,62.7850549 56.5784615,62.8237363 C56.4487912,62.9591209 56.3828571,63.050989 56.330989,63.1041758 C56.0083516,62.3859341 55.2272527,62.0004396 54.5142857,62.0004396 C53.5806593,62.0004396 52.8272527,62.2931868 52.2958242,63.1041758 L52.2553846,63.1041758 L52.2553846,62.1736264 L49.8017582,62.1736264 L49.8017582,69.0751648 L52.3345055,69.0751648 L52.3345055,65.3375824 C52.3345055,64.6065934 52.5542857,64.0624176 53.2298901,64.0624176 C54.0479121,64.0624176 54.0975824,64.6857143 54.0975824,65.3375824 L54.0975824,69.0751648 L56.6443956,69.0751648 L56.6443956,65.3375824 C56.6443956,64.6065934 56.8632967,64.0624176 57.5371429,64.0624176 C58.3424176,64.0624176 58.4079121,64.6857143 58.4079121,65.3375824 L58.4079121,69.0751648 L60.9397802,69.0751648 L60.9397802,66.7134066 C61.3578022,68.341978 62.7512088,69.2479121 64.5446154,69.2479121 C66.1037363,69.2479121 67.5054945,68.5705495 68.0369231,67.1059341 L65.6716484,67.1059341 C65.4536264,67.44 64.9859341,67.5986813 64.570989,67.5986813 Z M46.1296703,67.3718681 C45.1305495,67.3718681 44.9872527,66.3617582 44.9872527,65.6171429 C44.9872527,64.8738462 45.1305495,63.8751648 46.1296703,63.8751648 C47.1265934,63.8751648 47.2707692,64.8738462 47.2707692,65.6171429 C47.2707692,66.3617582 47.1265934,67.3718681 46.1296703,67.3718681 Z M40.4215385,66.3459341 C40.3556044,66.9068132 40.0079121,67.3718681 39.3450549,67.3718681 C38.5274725,67.3718681 38.2281319,66.7349451 38.2281319,65.6294505 C38.2281319,64.7912088 38.4347253,63.8751648 39.3964835,63.8751648 C39.9956044,63.8751648 40.3556044,64.2747253 40.3556044,64.9665934 L42.5024176,64.9665934 C42.4716484,65.1793407 42.4553846,65.3964835 42.4553846,65.6171429 C42.4553846,65.8646154 42.4751648,66.1081319 42.5138462,66.3459341 L40.4215385,66.3459341 Z M46.1296703,62.0004396 C44.2395604,62.0004396 43.1230769,62.9516484 42.6795604,64.2307692 C42.3076923,62.6778022 40.8892308,62.0004396 39.3964835,62.0004396 C37.5164835,62.0004396 36.0887912,63.1156044 35.7648352,64.8593407 L35.7648352,59.5802198 L33.232967,59.5802198 L33.232967,69.0751648 L35.7648352,69.0751648 L35.7648352,66.4716484 C36.0835165,68.3028571 37.4681319,69.2479121 39.3182418,69.2479121 C40.9006593,69.2479121 42.2048352,68.4615385 42.6879121,67.0294505 C43.1371429,68.3010989 44.2505495,69.2479121 46.1296703,69.2479121 C48.6597802,69.2479121 49.8017582,67.5327473 49.8017582,65.6171429 C49.8017582,63.7037363 48.6597802,62.0004396 46.1296703,62.0004396 Z M55.5498901,13.9226374 L50.2189011,34.1758242 C48.1876923,26.450989 46.3257143,19.4694505 46.0105495,18.32 C45.1964835,15.3520879 43.2202198,13.9261538 40.3063736,13.9261538 C37.1507692,13.9261538 34.8694505,13.9226374 34.8694505,13.9226374 C34.8540659,13.9226374 34.843956,13.9226374 34.843956,13.9226374 L29.509011,34.1920879 L24.1740659,13.9226374 L12.2087912,15.3134066 C12.2087912,15.3134066 18.7810989,40.3349451 19.981978,44.8747253 C20.7503297,47.7806593 22.2905495,49.7459341 25.2276923,50.5424176 C28.2650549,51.3674725 34.5191209,53.2298901 34.5191209,53.2298901 L39.8632967,32.9032967 C41.4835165,39.0632967 42.7230769,43.5912088 43.2092308,45.3701099 C43.9345055,48.029011 45.6808791,49.7217582 48.7191209,50.6153846 C52.829011,51.8232967 57.5424176,53.2298901 57.5424176,53.2298901 L67.5340659,15.2404396 L55.5498901,13.9226374 Z M1.42108547e-14,80 L79.7437363,80 L79.7437363,0.255824176 L1.42108547e-14,0.255824176 L1.42108547e-14,80 Z" id="Fill-1" fill="#A8A8A8"></path>
    </g>
</svg>

<svg width="80" height="80" xmlns="http://www.w3.org/2000/svg"><path d="M27.68 67.106c-.22.334-.687.493-1.103.493-.828 0-1.28-.574-1.348-1.397h4.73v.904h-2.28zm-1.129-3.457c.741 0 1.221.533 1.221 1.225h-2.53c.128-.801.581-1.225 1.31-1.225zm3.408.733C29.499 62.847 28.367 62 26.435 62c-1.492 0-2.628.757-3.204 1.873l.528-1.7h-2.65l-.945 4.294h-.052l-.91-4.293h-2.387l-.859 4.293h-.038l-1.013-4.293h-2.647l2.102 6.901h2.61l1.012-4.269h.037l.987 4.27h2.61l1.239-3.99a4.089 4.089 0 00-.043.559c0 2.299 1.587 3.603 3.74 3.603 1.481 0 2.819-.614 3.407-1.932v1.76h2.53V59.58h-2.53v4.802zm34.586-.733c.74 0 1.217.533 1.217 1.225h-2.529c.131-.801.586-1.225 1.312-1.225zm.026 3.95c-.833 0-1.284-.574-1.349-1.397h4.97C68.18 63.529 67.025 62 64.429 62c-1.806 0-3.09 1.11-3.488 2.623v-.294c0-1.119-.583-2.329-2.3-2.329-.996 0-1.61.358-1.96.703-.036.042-.076.082-.102.12-.13.136-.195.228-.247.281-.323-.718-1.104-1.104-1.817-1.104-.933 0-1.687.293-2.218 1.104h-.04v-.93h-2.454v6.901h2.533v-3.737c0-.731.22-1.276.895-1.276.818 0 .868.624.868 1.276v3.737h2.546v-3.737c0-.731.22-1.276.893-1.276.805 0 .87.624.87 1.276v3.737h2.533v-2.362c.418 1.629 1.811 2.535 3.605 2.535 1.559 0 2.96-.677 3.492-2.142h-2.365c-.218.334-.686.493-1.101.493zm-18.441-.227c-1 0-1.143-1.01-1.143-1.755 0-.743.144-1.742 1.143-1.742.997 0 1.14.999 1.14 1.742 0 .745-.143 1.755-1.14 1.755zm-5.708-1.026c-.066.56-.414 1.026-1.077 1.026-.818 0-1.117-.637-1.117-1.743 0-.838.207-1.754 1.168-1.754.6 0 .96.4.96 1.092h2.146a4.542 4.542 0 00.012 1.379h-2.092zM46.13 62c-1.89 0-3.007.952-3.45 2.23-.372-1.552-1.79-2.23-3.284-2.23-1.88 0-3.307 1.116-3.631 2.86v-5.28h-2.532v9.495h2.532v-2.603c.319 1.83 1.703 2.776 3.553 2.776 1.583 0 2.887-.786 3.37-2.219.45 1.272 1.563 2.219 3.442 2.219 2.53 0 3.672-1.715 3.672-3.63 0-1.914-1.142-3.618-3.672-3.618zm9.42-48.077l-5.331 20.253A2876.358 2876.358 0 0046.01 18.32c-.815-2.968-2.79-4.394-5.705-4.394-3.155 0-5.437-.003-5.437-.003h-.025l-5.335 20.27-5.335-20.27-11.965 1.39s6.572 25.022 7.773 29.562c.768 2.906 2.309 4.87 5.246 5.667 3.037.825 9.291 2.688 9.291 2.688l5.344-20.327c1.62 6.16 2.86 10.688 3.346 12.467.726 2.659 2.472 4.352 5.51 5.245 4.11 1.208 8.823 2.615 8.823 2.615l9.992-37.99-11.984-1.317zM0 80h79.744V.256H0V80z" fill="#A8A8A8"/></svg>
